X: 1
T: The Flowing Bowl
R: reel
M: 4/4
L: 1/8
Z: Contributed 2016-04-07 08:34:45 by Jim jsofgrant@gmail.com
K: Dmaj
ef| gfed cAAB|cAdB cAAf|gfed cAAe|fage d2 ef|
gfed cAAB|cAdB cAAf|gfed cAAe |fage d2 ||
(3ABc | d2 fd adfd|d2 fa gece|d2 fd adfd|g3 e cABc|
d2 fd adfd|d2 fa gece| f3 d g3 e| fage d2 ||


